rospo-light/small/status/network-wireless-error-symbolic.svg

<?xml version="1.0" encoding="UTF-8" standalone="no"?>
<svg
   xmlns:dc="http://purl.org/dc/elements/1.1/"
   xmlns:cc="http://creativecommons.org/ns#"
   xmlns:rdf="http://www.w3.org/1999/02/22-rdf-syntax-ns#"
   xmlns:svg="http://www.w3.org/2000/svg"
   xmlns="http://www.w3.org/2000/svg"
   xmlns:sodipodi="http://sodipodi.sourceforge.net/DTD/sodipodi-0.dtd"
   xmlns:inkscape="http://www.inkscape.org/namespaces/inkscape"
   width="22"
   height="22"
   version="1.1"
   id="svg6"
   sodipodi:docname="network-wireless-error-symbolic.svg"
   inkscape:version="0.92.1 r">
  <metadata
     id="metadata12">
    <rdf:RDF>
      <cc:Work
         rdf:about="">
        <dc:format>image/svg+xml</dc:format>
        <dc:type
           rdf:resource="http://purl.org/dc/dcmitype/StillImage" />
      </cc:Work>
    </rdf:RDF>
  </metadata>
  <defs
     id="defs10" />
  <sodipodi:namedview
     pagecolor="#ffffff"
     bordercolor="#666666"
     borderopacity="1"
     objecttolerance="10"
     gridtolerance="10"
     guidetolerance="10"
     inkscape:pageopacity="0"
     inkscape:pageshadow="2"
     inkscape:window-width="769"
     inkscape:window-height="480"
     id="namedview8"
     showgrid="false"
     inkscape:zoom="10.727273"
     inkscape:cx="9.5324367"
     inkscape:cy="11"
     inkscape:window-x="0"
     inkscape:window-y="0"
     inkscape:window-maximized="0"
     inkscape:current-layer="svg6" />
  <g
     id="g824"
     transform="translate(3,2.5)">
    <path
       id="path2"
       d="M 8,2 C 4.9494,2 2.0806,3.0732 0,5 l 8,9 3,-3.375 V 5 h 4 V 6.125 L 16,5 C 13.919,3.0731 11.051,2 8,2 Z"
       style="opacity:0.3;fill:#5c616c"
       inkscape:connector-curvature="0" />
    <path
       id="path4"
       d="m 12,6 v 4 l 0.25,2 h 1.5 L 14,10 V 6 Z m 0,7 v 2 h 2 v -2 z"
       class="warning"
       style="fill:#5294e2"
       inkscape:connector-curvature="0" />
  </g>
</svg>

<svg xmlns="http://www.w3.org/2000/svg" width="16" height="16" version="1.1">
 <path style="opacity:0.3;fill:#5c616c" d="M 8 2 C 4.9494 2 2.0806 3.0732 0 5 L 8 14 L 11 10.625 L 11 5 L 15 5 L 15 6.125 L 16 5 C 13.919 3.0731 11.051 2 8 2 z"/>
 <path style="fill:#5294e2" class="warning" d="M 12,6 V 10 L 12.25,12 H 13.75 L 14,10 V 6 Z M 12,13 V 15 H 14 V 13 Z"/>
</svg>
